X: 087
T: Gramachree
B: 204 Favourite Country Dances
N: Published by Straight & Skillern, London ca.1775
F: http://imslp.org/wiki/204_Favourite_Country_Dances_(Various) p.44 #87
Z: 2014 John Chambers <jc:trillian.mit.edu>
M: C
L: 1/8
K: D
% - - - - - - - - - - - - - - - - - - - - - - - - -
D |\
(A>B)A>F (B>c){e}d>{c}B | (A>F)(D>F) (E>D)(E>F) |\
(A>B)(A>F) (B>c)({e}d>{c}B) | (A>F)(E>F) D/D/D D :|
{Bc}d>cd>e .d.c.B.A | (B>A)(d>F) (A>B)(A>F) |\
{Bc}d>cd>e .d.c.B.A | (B>A)(d>F) [A4F4] |
{Bc}d>cB>A B>cd>g | {g}f/e/f/g/ a>f e>de>f |\
d>c.B.A (B>d)(g>b) | a>fe>f d/d/d d |]
% - - - - - - - - - - - - - - - - - - - - - - - - -
%%begintext align
%% 1st & 2d Cu. set & change sides .| the same back
%% again :| lead down the middle up again & cast
%% off .|. set each cross corners and turn :|. lead
%% out each side :|:
%%endtext

%%sep 1 1 500
%%sep 1 1 500
